X: 602
U:~=!turn!
U:k=!crescendo(!
U:m=!crescendo)!
U:n=!diminuendo(!
U:p=!diminuendo)!
M:C|
L:1/8
K:D
c | {/c}d2 fd (AF)GA | .B.c.d.e .c.A.B.c | {/c}d2 (fd) .A.F.G.A | .B.d.c.e (d2 [Fd]) :| B | AFGA Bcdf | kedcmB neAApB |


